src/assets/duotone/Twitch.svg

<?xml version="1.0" encoding="UTF-8"?>
<svg width="24" height="24" viewBox="0 0 24 24" xmlns="http://www.w3.org/2000/svg">
 <path d="m5.0398 2h15.46c0.55 0 1 0.45 1 1v10.59c0 0.27-0.11 0.52-0.29 0.71l-4.41 4.41c-0.19 0.19-0.44 0.29-0.71 0.29h-4.05c-0.33 0-0.65 0.17-0.83 0.45l-1.41 2.11c-0.19 0.28-0.5 0.45-0.83 0.45h-1.46c-0.55 0-1-0.45-1-1v-1c0-0.55-0.45-1-1-1h-2c-0.55 0-1-0.45-1-1v-12.7c0-0.2 0.05999-0.39001 0.16999-0.55001l1.54-2.3c0.17-0.29 0.47999-0.46001 0.81999-0.46001z" clip-rule="evenodd" fill-rule="evenodd" opacity=".4"/>
 <path d="m8.5 7.1403v5.71c0 0.32 0.26001 0.57 0.57001 0.57h1.14c0.32 0 0.57-0.26 0.57-0.57v-5.71c0-0.32-0.26-0.56999-0.57-0.56999h-1.14c-0.31 0-0.57001 0.25999-0.57001 0.56999z" clip-rule="evenodd" fill-rule="evenodd"/>
 <path d="m14.21 7.1403v5.71c0 0.32 0.26 0.57 0.57 0.57h1.14c0.32 0 0.57-0.26 0.57-0.57v-5.71c0-0.32-0.26-0.56999-0.57-0.56999h-1.14c-0.31 0-0.57 0.25999-0.57 0.56999z" clip-rule="evenodd" fill-rule="evenodd"/>
</svg>

<svg width="24" height="24" viewBox="0 0 24 24"  xmlns="http://www.w3.org/2000/svg">
<path opacity="0.4" fill-rule="evenodd" clip-rule="evenodd" d="M5.03976 2H20.4998C21.0498 2 21.4998 2.45 21.4998 3V13.59C21.4998 13.86 21.3898 14.11 21.2098 14.3L16.7998 18.71C16.6098 18.9 16.3598 19 16.0898 19H12.0398C11.7098 19 11.3898 19.17 11.2098 19.45L9.79977 21.56C9.60977 21.84 9.29977 22.01 8.96977 22.01H7.50977C6.95977 22.01 6.50977 21.56 6.50977 21.01V20.01C6.50977 19.46 6.05977 19.01 5.50977 19.01H3.50977C2.95977 19.01 2.50977 18.56 2.50977 18.01V5.31C2.50977 5.11 2.56976 4.91999 2.67976 4.75999L4.21977 2.46001C4.38977 2.17001 4.69976 2 5.03976 2Z" />
<path fill-rule="evenodd" clip-rule="evenodd" d="M8.5 7.1403V12.8503C8.5 13.1703 8.76001 13.4203 9.07001 13.4203H10.21C10.53 13.4203 10.78 13.1603 10.78 12.8503V7.1403C10.78 6.8203 10.52 6.57031 10.21 6.57031H9.07001C8.76001 6.57031 8.5 6.8303 8.5 7.1403Z" />
<path fill-rule="evenodd" clip-rule="evenodd" d="M14.21 7.1403V12.8503C14.21 13.1703 14.47 13.4203 14.78 13.4203H15.92C16.24 13.4203 16.49 13.1603 16.49 12.8503V7.1403C16.49 6.8203 16.23 6.57031 15.92 6.57031H14.78C14.47 6.57031 14.21 6.8303 14.21 7.1403Z" />
</svg>
